X:1
T:String Quartet No. 2
T:F. J. Haydn　Op.1 
T:String Quartet No. 2
T:5th movement
C:F. J. Haydn　Op.1
%%score [ 1 2 3 4 ]
L:1/8
Q:1/4=130
M:2/4
K:Eb
V:1 treble nm="Violin I"
V:2 treble nm="Violin II"
V:3 alto nm="Viola"
V:4 bass nm="Cello"
V:1
"^Presto"!f! ._B | .e.B.g.e | (a2 f).d | .e.B.G.E | B2 z .B, | .E.B,.G.E | (A2 F).D | .E.C.A,.B, | %8
 E2 z (g | f).B(=Ae) | (e2 d).g | .f(B=A).e | (e2 d).f | .b.f.b.f | .b.f .b.D | .E.C.F.D | %16
 B,2!p! !//!F2 | !//!F2 !//!F2 | !//!F2 !//!F2 | !//!F2 !//!F2 | !//!F2 !//!F2 | !//!F2 !//!F2 | %22
 F2 z!f! .f | .b.f.b.f | (b/=a/b/c'/) .d' .D | .E.F.G.=A | (B/c/d/c/) .B.D | E2 [CE=A]2 | %28
 [B,DB]2 z ::"^A" .F | .B.F.d.B | (e2 c).=A | .B.G.E.F | B,2 z .B | .e.B.g.e | (a2 f).d | %36
 .e.B.G.E | B2 z .g | .b.E.B._d | .c.E.A,.c | .g.C.G.B | .A.F.A,.f | (f/g/f/g/) .a.c | %43
 =B/!p!G/G/G/ !//!G2 | !//!G2 !//!G2 | !//!G2 !//!G2 | !//!G2 !//!G2 | G z z G | c2 (c3/2d/4e/4) | %49
 d2 z .a | .g.f.e.d | c2 z!f! G | .c.G.e.=B | c2 z .G | .c.G.E.C | G2 z .B |"^B" .eB.g.e | %57
 (a2 f).d | .e.B.A.G | .F.B, z (c | B)(EDA) | (A2 G).c | .B(ed).a | (a2 g)(b/g/) | .e.B.e.B | %65
 .e.B.e.G | .A.F.B.G | E2!p! !//!B,2 | !//!B,2 !//!B,2 | !//!B,2 !//!B,2 | !//!B,2 !//!B,2 | %71
 !//!B,2 !//!B,2 | !//!B,2 !//!B,2 | B,2 z!f! .B | .e.B.e.B | (e/d/e/f/) g .G, | .A,.B,.C.D | %77
 (E/F/G/F/) E.G, | A,2 [A,D]2 | [G,E]2 z :| %80
V:2
 z | z4 |!f! (f2 d).d | .e.B.G.E | B2 z2 | z4 | (F2 D).D | .E.C.A,.B, | E2 z2 | z2 z c | (c2 B) z | %11
 z2 z c | (c2 B) z | [DB]2 [DB]2 | [DB]2 .[DB].D | .E.C.F.D | B,2!p! f2- | f e2 _d- | d.c f2- | %19
 f e2 _d- | d.c f2- | f e2 _d- | d.c z2 |!f! [=DB]2 [DB]2 | [DB]2 z .D | .E.F.G.=A | %26
 (B/c/d/c/) .B.D | E2 [CE=A]2 | [B,DB]2 z :: z | z4 | (c2 =A).A | .B.G.E.F | B,2 z2 | z4 | %35
 (f2 d).d | .e.B.G.E | B2 z2 | _D/D/D/D/ !//!D2 | !//!C2 !//!C2 | !//!G2 !//!G2 | !//!A2 !//!A2 | %42
 !//!A2 !//!A2 | G2!p! g2- | g f2 e- | e.d G2- | G F2 .E | D z z2 | .G.G.G.G | .A.A.A.f | %50
 .e.d.c.=B | c2 z!f! .G | .c.G.e.=B | c2 z .G | .c.G.E.C | G2 z2 | z4 | (f2 d).A | .G.G.F.E | %59
 .D.B, z2 | z2 z F | (F2 E) z | z2 z f | (f2 e) z | [G,E]2 [G,E]2 | [G,E]2 .[G,E].G | .A.F.B.G | %67
 E2!p! B2- | B A2 _G- | G.F B2- | B A2 _G- | G.F B2- | B A2 _G- | G.F z2 |!f! [=G,E]2 [G,E]2 | %75
 [G,E]2 z .G, | .A,.B,.C.D | (E/F/G/F/) E.G, | A,2 [A,D]2 | [G,E]2 z :| %80
V:3
 z | z4 |!f! B3 .d | .e.B.G.E | B2 z2 | z4 | B,3 .D | .E.C.A,.B, | E2 z E | D2 z =A, | B,F,B,E | %11
 D2 z =A, | B,F, B,2 | F z F z | F z .F.D | .E.C.F.D | B,2!p! _d2- | d c2 B- | B.=A _d2- | %19
 d c2 B- | B.=A _d2- | d c2 B- | B.=A z2 |!f! F2 F2 | F2 z .D | .E.F.G.=A | (B/c/d/c/) .B.D | %27
 E2 F2 | B,2 z :: z | z4 | F3 =A | .B.G.E.F | B,2 z2 | z4 | B3 .d | .e.B.G.E | B2 z2 | %38
 E/E/E/E/ !//!E2 | !//!E2 !//!E2 | !//!C2 !//!C2 | !//!C2 !//!C2 | !//!D2 !//!C2 | G,2!p! e2- | %44
 e d2 c- | c.=B E2- | E D2 .C | =B, z z2 | .E.E.E.E | .F.F.F.F | .G.G.G.G | E2 z!f! .G | %52
 .c.G.e.=B | c2 z .G | .c.G.E.C | G2 z2 | z4 | B3 B | E2 z .E | .B.B, z2 | z2 z D | EB, E,2 | %62
 z2 z D | EB, E,2 | B, z B, z | B, z .B,.G | .A.F.B.G | E2!p! _G2- | G F2 E- | E.D _G2- | G F2 E- | %71
 E.D _G2- | G F2 E- | E.D z2 |!f! E2 E2 | E2 z .G, | .A,.B,.C.D | (E/F/G/F/) E.G, | A,2 B,2 | %79
 E2 z :| %80
V:4
 z | z4 |!f! B,3 .D | .E.B,.G,.E, | B,2 z2 | z4 | B,,3 .D, | .E,.C,.A,,.B,, | E,2 z2 | z2 z F, | %10
 B,F, B,,2 | z2 z F, | B,F, B,,2 | B,2 B,2 | B,2 .B,.D, | .E,.C,.F,.D, | B,,2 z2 |!p! =A,2 B,2 | %18
 F,2 z2 | =A,2 B,2 | F,2 z2 | =A,2 B,2 | F,2 z2 |!f! B,2 B,2 | B,2 z .D, | .E,.F,.G,.=A, | %26
 (B,/C/D/C/) .B,.D, | E,2 F,2 | B,,2 z :: z | z4 | F,3 .=A, | .B,.G,.E,.F, | B,,2 z2 | z4 | %35
 B,3 .D | .E.B,.G,.E, | B,2 z2 | G,G,G,G, | !/!A,4 | !/!=E,4 | !/!F,4 | !/!F,4 | G,2 z2 | %44
!p! =B,2 C2 | G,2 z2 | =B,,2 C,2 | G,, z z2 | z4 | z4 | z4 | z2 z!f! .G, | .C.G,.E.=B, | C2 z .G, | %54
 .C.G,.E,.C, | G,2 z2 | z4 | B,3 B, | E,2 z .E, | .B,.B,, z2 | z2 z B,, | E,B,, E,2 | z2 z B,, | %63
 E,B,, E,2 | E,2 E,2 | E,2 .E,.G, | .A,.F,.B,.G, | E,2 z2 |!p! D2 E2 | B,2 z2 | D,2 E,2 | B,,2 z2 | %72
 D,2 E,2 | B,,2 z2 |!f! E,2 E,2 | E,2 z .G,, | .A,,.B,,.C,.D, | (E,/F,/G,/F,/) E,.G,, | A,,2 B,,2 | %79
 E,2 z :| %80

